Sources/FrostedUI/Resources/Icons.xcassets/photo20.imageset/photo-20.svg

<svg width="20" height="20" viewBox="0 0 20 20" fill="none" xmlns="http://www.w3.org/2000/svg" data-fui-icon="true">
  <path
    d="M15.1299 1C17.2672 1 19 2.73278 19 4.87012V15.1299C19 17.2672 17.2672 19 15.1299 19H4.87012C2.73278 19 1 17.2672 1 15.1299V4.87012C1 2.73278 2.73278 1 4.87012 1H15.1299ZM5.83984 9.75C5.62724 9.75009 5.42503 9.84307 5.28711 10.0049L2.5 13.2764V15.1299C2.5 16.4388 3.5612 17.5 4.87012 17.5H13.291L6.375 9.98438C6.23748 9.83493 6.04293 9.75 5.83984 9.75ZM4.87012 2.5C3.5612 2.5 2.5 3.5612 2.5 4.87012V10.9629L4.14551 9.03223C4.56842 8.53593 5.1878 8.25009 5.83984 8.25C6.46238 8.25 7.05696 8.51066 7.47852 8.96875L15.3193 17.4893C16.5396 17.3927 17.5 16.375 17.5 15.1299V4.87012C17.5 3.5612 16.4388 2.5 15.1299 2.5H4.87012ZM12.5 5C13.8807 5 15 6.11929 15 7.5C15 8.88071 13.8807 10 12.5 10C11.1193 10 10 8.88071 10 7.5C10 6.11929 11.1193 5 12.5 5ZM12.5 6.5C11.9477 6.5 11.5 6.94772 11.5 7.5C11.5 8.05228 11.9477 8.5 12.5 8.5C13.0523 8.5 13.5 8.05228 13.5 7.5C13.5 6.94772 13.0523 6.5 12.5 6.5Z"
    fill="currentColor"
  />
</svg>

<svg xmlns="http://www.w3.org/2000/svg" width="20" height="20" fill="none" data-fui-icon="true" viewBox="0 0 20 20"><path fill="currentColor" d="M15.13 1A3.87 3.87 0 0 1 19 4.87v10.26A3.87 3.87 0 0 1 15.13 19H4.87A3.87 3.87 0 0 1 1 15.13V4.87A3.87 3.87 0 0 1 4.87 1zM5.84 9.75a.73.73 0 0 0-.553.255L2.5 13.276v1.854a2.37 2.37 0 0 0 2.37 2.37h8.421L6.375 9.984a.73.73 0 0 0-.535-.234M4.87 2.5A2.37 2.37 0 0 0 2.5 4.87v6.093l1.646-1.93a2.226 2.226 0 0 1 3.333-.064l7.84 8.52a2.367 2.367 0 0 0 2.181-2.36V4.87a2.37 2.37 0 0 0-2.37-2.37zM12.5 5a2.5 2.5 0 1 1 0 5 2.5 2.5 0 0 1 0-5m0 1.5a1 1 0 1 0 0 2 1 1 0 0 0 0-2"/></svg>
